app/assets/images/ico-croix.svg

<svg enable-background="new 0 0 15 15" viewBox="0 0 15 15" xmlns="http://www.w3.org/2000/svg"><path d="m7.5 0c-4.136 0-7.5 3.364-7.5 7.5s3.364 7.5 7.5 7.5 7.5-3.364 7.5-7.5-3.364-7.5-7.5-7.5zm0 14c-3.584 0-6.5-2.916-6.5-6.5s2.916-6.5 6.5-6.5 6.5 2.916 6.5 6.5-2.916 6.5-6.5 6.5z"/><path d="m10.146 4.146-2.646 2.647-2.646-2.647-.708.708 2.647 2.646-2.647 2.646.708.708 2.646-2.647 2.646 2.647.708-.708-2.647-2.646 2.647-2.646z"/></svg>

<?xml version="1.0" encoding="utf-8"?>
<!-- Generator: Adobe Illustrator 22.1.0, SVG Export Plug-In . SVG Version: 6.00 Build 0)  -->
<svg version="1.1" id="Calque_1" xmlns="http://www.w3.org/2000/svg" xmlns:xlink="http://www.w3.org/1999/xlink" x="0px" y="0px"
	 viewBox="0 0 15 15" style="enable-background:new 0 0 15 15;" xml:space="preserve">
<style type="text/css">
	.st0{fill:#403F3F;}
</style>
<path class="st0" d="M7.5,0C3.4,0,0,3.4,0,7.5S3.4,15,7.5,15S15,11.6,15,7.5S11.6,0,7.5,0z M7.5,14C3.9,14,1,11.1,1,7.5S3.9,1,7.5,1
	S14,3.9,14,7.5S11.1,14,7.5,14z"/>
<path class="st0" d="M10.1,4.1L7.5,6.8L4.9,4.1L4.1,4.9l2.6,2.6l-2.6,2.6l0.7,0.7l2.6-2.6l2.6,2.6l0.7-0.7L8.2,7.5l2.6-2.6L10.1,4.1
	z"/>
</svg>
